src/svg/add--outline.svg

<?xml version="1.0" encoding="UTF-8" standalone="no"?>
<svg width="16px" height="16px" viewBox="0 0 16 16" version="1.1" xmlns="http://www.w3.org/2000/svg" xmlns:xlink="http://www.w3.org/1999/xlink">
    <!-- Generator: Sketch 50.2 (55047) - http://www.bohemiancoding.com/sketch -->
    <title>add--outline</title>
    <desc>Created with Sketch.</desc>
    <defs></defs>
    <g id="add--outline" stroke="none" stroke-width="1" fill="none" fill-rule="evenodd">
        <path d="M8,14.5 C11.5898509,14.5 14.5,11.5898509 14.5,8 C14.5,4.41014913 11.5898509,1.5 8,1.5 C4.41014913,1.5 1.5,4.41014913 1.5,8 C1.5,11.5898509 4.41014913,14.5 8,14.5 Z M8,16 C3.581722,16 0,12.418278 0,8 C0,3.581722 3.581722,0 8,0 C12.418278,0 16,3.581722 16,8 C16,12.418278 12.418278,16 8,16 Z" id="Oval" fill="#000000" fill-rule="nonzero"></path>
        <path d="M7,7 L7,4 L9,4 L9,7 L12,7 L12,9 L9,9 L9,12 L7,12 L7,9 L4,9 L4,7 L7,7 Z" id="Combined-Shape" fill="#000000" fill-rule="nonzero"></path>
    </g>
</svg>

<?xml version="1.0" encoding="utf-8"?>
<!-- Generator: Adobe Illustrator 22.0.1, SVG Export Plug-In . SVG Version: 6.00 Build 0)  -->
<!DOCTYPE svg PUBLIC "-//W3C//DTD SVG 1.1//EN" "http://www.w3.org/Graphics/SVG/1.1/DTD/svg11.dtd">
<svg version="1.1" id="Layer_1" xmlns="http://www.w3.org/2000/svg" xmlns:xlink="http://www.w3.org/1999/xlink" x="0px" y="0px"
	 width="16px" height="16px" viewBox="0 0 16 16" style="enable-background:new 0 0 16 16;" xml:space="preserve">
<title>add--outline</title>
<desc>Created with Sketch.</desc>
<g id="add--outline">
	<path id="Oval" d="M8,14.5c3.6,0,6.5-2.9,6.5-6.5S11.6,1.5,8,1.5S1.5,4.4,1.5,8S4.4,14.5,8,14.5z M8,16c-4.4,0-8-3.6-8-8s3.6-8,8-8
		s8,3.6,8,8S12.4,16,8,16z"/>
	<path id="Combined-Shape" d="M7,7V4h2v3h3v2H9v3H7V9H4V7H7z"/>
</g>
</svg>
